!!!OTL: 207. Freude im Mai.
!!!COM: J. A. P. Schulz
!!!ODT: 1795
!!!ARE: Europa, Mitteleuropa, Deutschland
!!!SCT: B0207
!!!TXL: @@DE
!!!YEM: Copyright 1995, estate of Helmut Schaffrath.
**kern	**text
*ICvox	*
*Ivox	*
*celfG2	*
*M6/8	*
*k[b-]	*
*F:	*
=1	=1
!LO:TX:a:t=Etwas lebhaft.	!
{4cc	Won-
8cc	-ne
4cc	ſchwe-
8a	-bet,
=2	=2
4cc	lä-
8a	-chelt
8b-/L	ü-
8aJ	.
8g	-ber-
=3	=3
4f	-all;
8r	.
4r	.
8r}	.
=4	=4
{4a	ſchwebt
8a	am
8aL	licht
8gJ	.
8a	be-
=5	=5
8ccL	-grün-
8b-J	.
8a	-ten
4a	Hü-
8g}	-gel,
=6	=6
{4a	lä-
8a	-chelt
8aL	aus
8gJ	.
8a	der
=7	=7
8ccL	Flu-
8b-J	.
8a	-ten
4a	Spie-
8g}	-gel,
=8	=8
{4cc	Won-
8cc	-ne
4cc	ſchwe-
8a	-bet,
=9	=9
4ff	lä-
8cc	-chelt
8b-/L	ü-
8aJ	.
8g	-ber-
=10	=10
4f	-all.
8r	.
4r	.
8r}	.
==	==
!!!AGN: Jahreszeiten - Lied, Fruehling
!!!GTL: Jahreszeitenlieder
!!!ONB: ESAC (Essen Associative Code) Database: BOEHME
!!!AMT: compound duple
!!!AIN: vox
!!!EED: Helmut Schaffrath
!!!EEV: 1.0
!!J. A. P. Schulʒ. 1795.
!!@@COMMENT:"Gedicht von Friederike Brunn, geb. Münter. Ʒuerſt mit dieſer Mel. von Schulʒ in "Gedichte, herausgegeben
!!von Matthiſon. Ʒürich, 1795.
!!Jrrthümlich wird dieſe Mel. Fr. Reichardt ʒugeſchrieben, ſo in "Lieder geſellig er Freude"
!!1797, im Mildh. Liederbuch 1797. - Hier habe ich 3 Strophen weggelaſſen."
!!@@END:
!!!Text: F. Brunn
!!!URL-scan:
!!!ENC: Anna Maria Matuszewska
!!!EEV: 2024/24/06
*-	*-
